assets/svg/bag.svg

<?xml version="1.0" encoding="UTF-8"?>
<svg width="1000px" height="1000px" viewBox="0 0 1000 1000" version="1.1" xmlns="http://www.w3.org/2000/svg" xmlns:xlink="http://www.w3.org/1999/xlink">
    <!-- Generator: sketchtool 52.4 (67378) - http://www.bohemiancoding.com/sketch -->
    <title>bag</title>
    <desc>Created with sketchtool.</desc>
    <g id="新版图标" stroke="none" stroke-width="1" fill="none" fill-rule="evenodd">
        <g id="bag" fill="#323233">
            <g id="直角-微商城">
                <path d="M333.333333,277.777778 C333.333333,185.730319 406.620056,111.111111 497.02381,111.111111 C587.427563,111.111111 660.714286,185.730319 660.714286,277.777778 L791.027318,277.777778 C791.386694,277.777778 791.684131,278.057205 791.706548,278.415881 L833.288145,943.721437 C833.311591,944.096565 833.026496,944.419674 832.651367,944.443119 C832.637234,944.444002 832.623076,944.444444 832.608915,944.444444 L167.391085,944.444444 C167.015224,944.444444 166.710529,944.139749 166.710529,943.763889 C166.710529,943.749728 166.710971,943.73557 166.711855,943.721437 L208.293452,278.415881 C208.315869,278.057205 208.613306,277.777778 208.972682,277.777778 L333.333333,277.777778 Z M388.888889,277.777778 L605.15873,277.777778 C605.15873,216.190976 556.518783,166.666667 497.02381,166.666667 C437.528836,166.666667 388.888889,216.190976 388.888889,277.777778 Z" id="Combined-Shape"></path>
            </g>
        </g>
    </g>
</svg>

<svg width="1000" height="1000" xmlns="http://www.w3.org/2000/svg"><path d="M333.333 277.778c0-92.048 73.287-166.667 163.69-166.667 90.405 0 163.691 74.62 163.691 166.667h130.313c.36 0 .657.28.68.638l41.581 665.305a.68.68 0 0 1-.68.723H167.392a.68.68 0 0 1-.68-.723l41.582-665.305a.68.68 0 0 1 .68-.638h124.36zm55.556 0h216.27c0-61.587-48.64-111.111-108.135-111.111-59.495 0-108.135 49.524-108.135 111.11z" fill="#323233" fill-rule="evenodd"/></svg>
